(1001)
(T32 D=3. CR=0. - ZMIN=-4. - FLAT END MILL)
G90 G94 G91.1 G40 G49 G17
G21
(-ATTENTION- PROPERTY SAFE RETRACTS IS SET TO CLEARANCE HEIGHT.)
(ENSURE THE CLEARANCE HEIGHT WILL CLEAR THE PART AND OR FIXTURES.)
(RAISE THE Z-AXIS TO A SAFE HEIGHT BEFORE STARTING THE PROGRAM.)

(BORE1)

S7000 M3
G17 G90 G94
G54
M8
G0 X265.2 Y320.2

G0 Z2.
G1 Z1. F500.
G18 G2 X266.2 Z0. I1. K0.
G1 X267.2
G17 G3 X267.5 Y320.5 I0. J0.3
X262.5 Z-1.456 I-2.5 J0. F800.
X267.5 Z-2.912 I2.5 J0.
X263.246 Y322.282 Z-4. I-2.5 J0.
X266.754 Y318.718 I1.754 J-1.782
X263.246 Y322.282 I-1.754 J1.782
X263.243 Y321.857 I0.21 J-0.214 F500.
G1 X263.944 Y321.145
X264.029 Y321.059 Z-3.993
X264.112 Y320.974 Z-3.971
X264.193 Y320.892 Z-3.935
X264.27 Y320.814 Z-3.885
X264.343 Y320.74 Z-3.823
X264.41 Y320.672 Z-3.749
X264.469 Y320.611 Z-3.663
X264.522 Y320.558 Z-3.568
X264.566 Y320.514 Z-3.465
X264.6 Y320.478 Z-3.355
X264.626 Y320.453 Z-3.239
X264.641 Y320.437 Z-3.121
X264.646 Y320.432 Z-3.
G0 Z5.
X252.2 Y278.2
Z2.
G1 Z1. F500.
G18 G2 X253.2 Z0. I1. K0.
G1 X254.2
G17 G3 X254.5 Y278.5 I0. J0.3
X251.5 Z-1.092 I-1.5 J0. F800.
X254.5 Z-2.184 I1.5 J0.
X251.5 Z-3.276 I-1.5 J0.
X253.736 Y277.193 Z-4. I1.5 J0.
X252.264 Y279.807 I-0.736 J1.307
X253.736 Y277.193 I0.736 J-1.307
X253.85 Y277.602 I-0.147 J0.261 F500.
G1 X253.36 Y278.473
X253.3 Y278.578 Z-3.993
X253.242 Y278.681 Z-3.971
X253.185 Y278.782 Z-3.935
X253.131 Y278.878 Z-3.885
X253.081 Y278.968 Z-3.823
X253.034 Y279.051 Z-3.749
X252.992 Y279.125 Z-3.663
X252.956 Y279.19 Z-3.568
X252.925 Y279.244 Z-3.465
X252.901 Y279.288 Z-3.355
X252.883 Y279.319 Z-3.239
X252.872 Y279.338 Z-3.121
X252.869 Y279.344 Z-3.
G0 Z5.
X205. Y250.5
Z1.
G1 Z0. F500.
X205.25 Y250.25
G3 X205.5 Y250.5 I0. J0.25
X204.5 Z-0.728 I-0.5 J0. F800.
X205.5 Z-1.456 I0.5 J0.
X204.5 Z-2.184 I-0.5 J0.
X205.5 Z-2.912 I0.5 J0.
X204.5 Z-3.64 I-0.5 J0.
X204.992 Y250. Z-4. I0.5 J0.
X205.008 Y251. I0.008 J0.5
X204.992 Y250. I-0.008 J-0.5
X205.246 Y250.246 I0.004 J0.25 F500.
G1 X205. Y250.5
G0 Z5.
X144.
Z1.
G1 Z0. F500.
X144.25 Y250.25
G3 X144.5 Y250.5 I0. J0.25
X143.5 Z-0.728 I-0.5 J0. F800.
X144.5 Z-1.456 I0.5 J0.
X143.5 Z-2.184 I-0.5 J0.
X144.5 Z-2.912 I0.5 J0.
X143.5 Z-3.64 I-0.5 J0.
X143.992 Y250. Z-4. I0.5 J0.
X144.008 Y251. I0.008 J0.5
X143.992 Y250. I-0.008 J-0.5
X144.246 Y250.246 I0.004 J0.25 F500.
G1 X144. Y250.5
G0 Z5.
X95.2 Y300.2
Z2.
G1 Z1. F500.
G18 G2 X96.2 Z0. I1. K0.
G1 X97.2
G17 G3 X97.5 Y300.5 I0. J0.3
X94.5 Z-1.092 I-1.5 J0. F800.
X97.5 Z-2.184 I1.5 J0.
X94.5 Z-3.276 I-1.5 J0.
X96.736 Y299.193 Z-4. I1.5 J0.
X95.264 Y301.807 I-0.736 J1.307
X96.736 Y299.193 I0.736 J-1.307
X96.85 Y299.602 I-0.147 J0.261 F500.
G1 X96.36 Y300.473
X96.3 Y300.578 Z-3.993
X96.242 Y300.681 Z-3.971
X96.185 Y300.782 Z-3.935
X96.131 Y300.878 Z-3.885
X96.081 Y300.968 Z-3.823
X96.034 Y301.051 Z-3.749
X95.992 Y301.125 Z-3.663
X95.956 Y301.19 Z-3.568
X95.925 Y301.244 Z-3.465
X95.901 Y301.288 Z-3.355
X95.883 Y301.319 Z-3.239
X95.872 Y301.338 Z-3.121
X95.869 Y301.344 Z-3.
G0 Z5.
X50.2 Y300.2
Z2.
G1 Z1. F500.
G18 G2 X51.2 Z0. I1. K0.
G1 X52.2
G17 G3 X52.5 Y300.5 I0. J0.3
X49.5 Z-1.092 I-1.5 J0. F800.
X52.5 Z-2.184 I1.5 J0.
X49.5 Z-3.276 I-1.5 J0.
X51.736 Y299.193 Z-4. I1.5 J0.
X50.264 Y301.807 I-0.736 J1.307
X51.736 Y299.193 I0.736 J-1.307
X51.85 Y299.602 I-0.147 J0.261 F500.
G1 X51.36 Y300.473
X51.3 Y300.578 Z-3.993
X51.242 Y300.681 Z-3.971
X51.185 Y300.782 Z-3.935
X51.131 Y300.878 Z-3.885
X51.081 Y300.968 Z-3.823
X51.034 Y301.051 Z-3.749
X50.992 Y301.125 Z-3.663
X50.956 Y301.19 Z-3.568
X50.925 Y301.244 Z-3.465
X50.901 Y301.288 Z-3.355
X50.883 Y301.319 Z-3.239
X50.872 Y301.338 Z-3.121
X50.869 Y301.344 Z-3.
G0 Z5.
X15.2 Y320.2
Z2.
G1 Z1. F500.
G18 G2 X16.2 Z0. I1. K0.
G1 X17.2
G17 G3 X17.5 Y320.5 I0. J0.3
X12.5 Z-1.456 I-2.5 J0. F800.
X17.5 Z-2.912 I2.5 J0.
X13.246 Y322.282 Z-4. I-2.5 J0.
X16.754 Y318.718 I1.754 J-1.782
X13.246 Y322.282 I-1.754 J1.782
X13.243 Y321.857 I0.21 J-0.214 F500.
G1 X13.944 Y321.145
X14.029 Y321.059 Z-3.993
X14.112 Y320.974 Z-3.971
X14.193 Y320.892 Z-3.935
X14.27 Y320.814 Z-3.885
X14.343 Y320.74 Z-3.823
X14.41 Y320.672 Z-3.749
X14.469 Y320.611 Z-3.663
X14.522 Y320.558 Z-3.568
X14.566 Y320.514 Z-3.465
X14.6 Y320.478 Z-3.355
X14.626 Y320.453 Z-3.239
X14.641 Y320.437 Z-3.121
X14.646 Y320.432 Z-3.
G0 Z5.
X15.2 Y19.2
Z2.
G1 Z1. F500.
G18 G2 X16.2 Z0. I1. K0.
G1 X17.2
G17 G3 X17.5 Y19.5 I0. J0.3
X12.5 Z-1.456 I-2.5 J0. F800.
X17.5 Z-2.912 I2.5 J0.
X13.246 Y21.282 Z-4. I-2.5 J0.
X16.754 Y17.718 I1.754 J-1.782
X13.246 Y21.282 I-1.754 J1.782
X13.243 Y20.857 I0.21 J-0.214 F500.
G1 X13.944 Y20.145
X14.029 Y20.059 Z-3.993
X14.112 Y19.974 Z-3.971
X14.193 Y19.892 Z-3.935
X14.27 Y19.814 Z-3.885
X14.343 Y19.74 Z-3.823
X14.41 Y19.672 Z-3.749
X14.469 Y19.611 Z-3.663
X14.522 Y19.558 Z-3.568
X14.566 Y19.514 Z-3.465
X14.6 Y19.478 Z-3.355
X14.626 Y19.453 Z-3.239
X14.641 Y19.437 Z-3.121
X14.646 Y19.432 Z-3.
G0 Z5.
X50.7 Y18.2
Z2.
G1 Z1. F500.
G18 G2 X51.7 Z0. I1. K0.
G1 X52.7
G17 G3 X53. Y18.5 I0. J0.3
X50. Z-1.092 I-1.5 J0. F800.
X53. Z-2.184 I1.5 J0.
X50. Z-3.276 I-1.5 J0.
X52.236 Y17.193 Z-4. I1.5 J0.
X50.764 Y19.807 I-0.736 J1.307
X52.236 Y17.193 I0.736 J-1.307
X52.35 Y17.602 I-0.147 J0.261 F500.
G1 X51.86 Y18.473
X51.8 Y18.578 Z-3.993
X51.742 Y18.682 Z-3.971
X51.685 Y18.782 Z-3.935
X51.631 Y18.878 Z-3.885
X51.581 Y18.968 Z-3.823
X51.534 Y19.051 Z-3.749
X51.492 Y19.125 Z-3.663
X51.456 Y19.19 Z-3.568
X51.425 Y19.244 Z-3.465
X51.401 Y19.288 Z-3.355
X51.383 Y19.319 Z-3.239
X51.372 Y19.338 Z-3.121
X51.369 Y19.344 Z-3.
G0 Z5.
X112.2 Y33.2
Z2.
G1 Z1. F500.
G18 G2 X113.2 Z0. I1. K0.
G1 X114.2
G17 G3 X114.5 Y33.5 I0. J0.3
X111.5 Z-1.092 I-1.5 J0. F800.
X114.5 Z-2.184 I1.5 J0.
X111.5 Z-3.276 I-1.5 J0.
X113.736 Y32.193 Z-4. I1.5 J0.
X112.264 Y34.807 I-0.736 J1.307
X113.736 Y32.193 I0.736 J-1.307
X113.85 Y32.602 I-0.147 J0.261 F500.
G1 X113.36 Y33.473
X113.3 Y33.578 Z-3.993
X113.242 Y33.682 Z-3.971
X113.185 Y33.782 Z-3.935
X113.131 Y33.878 Z-3.885
X113.081 Y33.968 Z-3.823
X113.034 Y34.051 Z-3.749
X112.992 Y34.125 Z-3.663
X112.956 Y34.19 Z-3.568
X112.925 Y34.244 Z-3.465
X112.901 Y34.288 Z-3.355
X112.883 Y34.319 Z-3.239
X112.872 Y34.338 Z-3.121
X112.869 Y34.344 Z-3.
G0 Z5.
X113.8 Y68.8
Z2.
G1 Z1. F500.
G18 G3 X112.8 Z0. I-1. K0.
G1 X111.8
G17 G3 X111.5 Y68.5 I0. J-0.3
X114.5 Z-1.092 I1.5 J0. F800.
X111.5 Z-2.184 I-1.5 J0.
X114.5 Z-3.276 I1.5 J0.
X112.264 Y69.807 Z-4. I-1.5 J0.
X113.736 Y67.193 I0.736 J-1.307
X112.264 Y69.807 I-0.736 J1.307
X112.15 Y69.398 I0.147 J-0.261 F500.
G1 X112.64 Y68.527
X112.7 Y68.422 Z-3.993
X112.758 Y68.319 Z-3.971
X112.815 Y68.218 Z-3.935
X112.869 Y68.122 Z-3.885
X112.919 Y68.032 Z-3.823
X112.966 Y67.949 Z-3.749
X113.008 Y67.875 Z-3.663
X113.044 Y67.81 Z-3.568
X113.075 Y67.756 Z-3.465
X113.099 Y67.712 Z-3.355
X113.117 Y67.681 Z-3.239
X113.128 Y67.662 Z-3.121
X113.131 Y67.656 Z-3.
G0 Z5.
X77.5 Y60.
Z1.
G1 Z0. F500.
X77.25 Y60.25
G3 X77. Y60. I0. J-0.25
X78. Z-0.728 I0.5 J0. F800.
X77. Z-1.456 I-0.5 J0.
X78. Z-2.184 I0.5 J0.
X77. Z-2.912 I-0.5 J0.
X78. Z-3.64 I0.5 J0.
X77.508 Y60.5 Z-4. I-0.5 J0.
X77.492 Y59.5 I-0.008 J-0.5
X77.508 Y60.5 I0.008 J0.5
X77.254 Y60.254 I-0.004 J-0.25 F500.
G1 X77.5 Y60.
G0 Z5.
X52.3 Y58.8
Z2.
G1 Z1. F500.
G18 G3 X51.3 Z0. I-1. K0.
G1 X50.3
G17 G3 X50. Y58.5 I0. J-0.3
X53. Z-1.092 I1.5 J0. F800.
X50. Z-2.184 I-1.5 J0.
X53. Z-3.276 I1.5 J0.
X50.764 Y59.807 Z-4. I-1.5 J0.
X52.236 Y57.193 I0.736 J-1.307
X50.764 Y59.807 I-0.736 J1.307
X50.65 Y59.398 I0.147 J-0.261 F500.
G1 X51.14 Y58.527
X51.2 Y58.422 Z-3.993
X51.258 Y58.318 Z-3.971
X51.315 Y58.218 Z-3.935
X51.369 Y58.122 Z-3.885
X51.419 Y58.032 Z-3.823
X51.466 Y57.949 Z-3.749
X51.508 Y57.875 Z-3.663
X51.544 Y57.81 Z-3.568
X51.575 Y57.756 Z-3.465
X51.599 Y57.712 Z-3.355
X51.617 Y57.681 Z-3.239
X51.628 Y57.662 Z-3.121
X51.631 Y57.656 Z-3.
G0 Z5.
X29.5 Y60.
Z1.
G1 Z0. F500.
X29.25 Y60.25
G3 X29. Y60. I0. J-0.25
X30. Z-0.728 I0.5 J0. F800.
X29. Z-1.456 I-0.5 J0.
X30. Z-2.184 I0.5 J0.
X29. Z-2.912 I-0.5 J0.
X30. Z-3.64 I0.5 J0.
X29.508 Y60.5 Z-4. I-0.5 J0.
X29.492 Y59.5 I-0.008 J-0.5
X29.508 Y60.5 I0.008 J0.5
X29.254 Y60.254 I-0.004 J-0.25 F500.
G1 X29.5 Y60.
G0 Z5.
X50.7 Y83.2
Z2.
G1 Z1. F500.
G18 G2 X51.7 Z0. I1. K0.
G1 X52.7
G17 G3 X53. Y83.5 I0. J0.3
X50. Z-1.092 I-1.5 J0. F800.
X53. Z-2.184 I1.5 J0.
X50. Z-3.276 I-1.5 J0.
X52.236 Y82.193 Z-4. I1.5 J0.
X50.764 Y84.807 I-0.736 J1.307
X52.236 Y82.193 I0.736 J-1.307
X52.35 Y82.602 I-0.147 J0.261 F500.
G1 X51.86 Y83.473
X51.8 Y83.578 Z-3.993
X51.742 Y83.681 Z-3.971
X51.685 Y83.782 Z-3.935
X51.631 Y83.878 Z-3.885
X51.581 Y83.968 Z-3.823
X51.534 Y84.051 Z-3.749
X51.492 Y84.125 Z-3.663
X51.456 Y84.19 Z-3.568
X51.425 Y84.244 Z-3.465
X51.401 Y84.288 Z-3.355
X51.383 Y84.319 Z-3.239
X51.372 Y84.338 Z-3.121
X51.369 Y84.344 Z-3.
G0 Z5.
X50.7 Y120.2
Z2.
G1 Z1. F500.
G18 G2 X51.7 Z0. I1. K0.
G1 X52.7
G17 G3 X53. Y120.5 I0. J0.3
X50. Z-1.092 I-1.5 J0. F800.
X53. Z-2.184 I1.5 J0.
X50. Z-3.276 I-1.5 J0.
X52.236 Y119.193 Z-4. I1.5 J0.
X50.764 Y121.807 I-0.736 J1.307
X52.236 Y119.193 I0.736 J-1.307
X52.35 Y119.602 I-0.147 J0.261 F500.
G1 X51.86 Y120.473
X51.8 Y120.578 Z-3.993
X51.742 Y120.681 Z-3.971
X51.685 Y120.782 Z-3.935
X51.631 Y120.878 Z-3.885
X51.581 Y120.968 Z-3.823
X51.534 Y121.051 Z-3.749
X51.492 Y121.125 Z-3.663
X51.456 Y121.19 Z-3.568
X51.425 Y121.244 Z-3.465
X51.401 Y121.288 Z-3.355
X51.383 Y121.319 Z-3.239
X51.372 Y121.338 Z-3.121
X51.369 Y121.344 Z-3.
G0 Z5.
X50.2 Y146.2
Z2.
G1 Z1. F500.
G18 G2 X51.2 Z0. I1. K0.
G1 X52.2
G17 G3 X52.5 Y146.5 I0. J0.3
X49.5 Z-1.092 I-1.5 J0. F800.
X52.5 Z-2.184 I1.5 J0.
X49.5 Z-3.276 I-1.5 J0.
X51.736 Y145.193 Z-4. I1.5 J0.
X50.264 Y147.807 I-0.736 J1.307
X51.736 Y145.193 I0.736 J-1.307
X51.85 Y145.602 I-0.147 J0.261 F500.
G1 X51.36 Y146.473
X51.3 Y146.578 Z-3.993
X51.242 Y146.681 Z-3.971
X51.185 Y146.782 Z-3.935
X51.131 Y146.878 Z-3.885
X51.081 Y146.968 Z-3.823
X51.034 Y147.051 Z-3.749
X50.992 Y147.125 Z-3.663
X50.956 Y147.19 Z-3.568
X50.925 Y147.244 Z-3.465
X50.901 Y147.288 Z-3.355
X50.883 Y147.319 Z-3.239
X50.872 Y147.338 Z-3.121
X50.869 Y147.344 Z-3.
G0 Z5.
X29.2 Y146.2
Z2.
G1 Z1. F500.
G18 G2 X30.2 Z0. I1. K0.
G1 X31.2
G17 G3 X31.5 Y146.5 I0. J0.3
X28.5 Z-1.092 I-1.5 J0. F800.
X31.5 Z-2.184 I1.5 J0.
X28.5 Z-3.276 I-1.5 J0.
X30.736 Y145.193 Z-4. I1.5 J0.
X29.264 Y147.807 I-0.736 J1.307
X30.736 Y145.193 I0.736 J-1.307
X30.85 Y145.602 I-0.147 J0.261 F500.
G1 X30.36 Y146.473
X30.3 Y146.578 Z-3.993
X30.242 Y146.681 Z-3.971
X30.185 Y146.782 Z-3.935
X30.131 Y146.878 Z-3.885
X30.081 Y146.968 Z-3.823
X30.034 Y147.051 Z-3.749
X29.992 Y147.125 Z-3.663
X29.956 Y147.19 Z-3.568
X29.925 Y147.244 Z-3.465
X29.901 Y147.288 Z-3.355
X29.883 Y147.319 Z-3.239
X29.872 Y147.338 Z-3.121
X29.869 Y147.344 Z-3.
G0 Z5.
X112.2 Y111.2
Z2.
G1 Z1. F500.
G18 G2 X113.2 Z0. I1. K0.
G1 X114.2
G17 G3 X114.5 Y111.5 I0. J0.3
X111.5 Z-1.092 I-1.5 J0. F800.
X114.5 Z-2.184 I1.5 J0.
X111.5 Z-3.276 I-1.5 J0.
X113.736 Y110.193 Z-4. I1.5 J0.
X112.264 Y112.807 I-0.736 J1.307
X113.736 Y110.193 I0.736 J-1.307
X113.85 Y110.602 I-0.147 J0.261 F500.
G1 X113.36 Y111.473
X113.3 Y111.578 Z-3.993
X113.242 Y111.681 Z-3.971
X113.185 Y111.782 Z-3.935
X113.131 Y111.878 Z-3.885
X113.081 Y111.968 Z-3.823
X113.034 Y112.051 Z-3.749
X112.992 Y112.125 Z-3.663
X112.956 Y112.19 Z-3.568
X112.925 Y112.244 Z-3.465
X112.901 Y112.288 Z-3.355
X112.883 Y112.319 Z-3.239
X112.872 Y112.338 Z-3.121
X112.869 Y112.344 Z-3.
G0 Z5.
X95.2 Y146.2
Z2.
G1 Z1. F500.
G18 G2 X96.2 Z0. I1. K0.
G1 X97.2
G17 G3 X97.5 Y146.5 I0. J0.3
X94.5 Z-1.092 I-1.5 J0. F800.
X97.5 Z-2.184 I1.5 J0.
X94.5 Z-3.276 I-1.5 J0.
X96.736 Y145.193 Z-4. I1.5 J0.
X95.264 Y147.807 I-0.736 J1.307
X96.736 Y145.193 I0.736 J-1.307
X96.85 Y145.602 I-0.147 J0.261 F500.
G1 X96.36 Y146.473
X96.3 Y146.578 Z-3.993
X96.242 Y146.681 Z-3.971
X96.185 Y146.782 Z-3.935
X96.131 Y146.878 Z-3.885
X96.081 Y146.968 Z-3.823
X96.034 Y147.051 Z-3.749
X95.992 Y147.125 Z-3.663
X95.956 Y147.19 Z-3.568
X95.925 Y147.244 Z-3.465
X95.901 Y147.288 Z-3.355
X95.883 Y147.319 Z-3.239
X95.872 Y147.338 Z-3.121
X95.869 Y147.344 Z-3.
G0 Z5.
X144. Y174.5
Z1.
G1 Z0. F500.
X144.25 Y174.25
G3 X144.5 Y174.5 I0. J0.25
X143.5 Z-0.728 I-0.5 J0. F800.
X144.5 Z-1.456 I0.5 J0.
X143.5 Z-2.184 I-0.5 J0.
X144.5 Z-2.912 I0.5 J0.
X143.5 Z-3.64 I-0.5 J0.
X143.992 Y174. Z-4. I0.5 J0.
X144.008 Y175. I0.008 J0.5
X143.992 Y174. I-0.008 J-0.5
X144.246 Y174.246 I0.004 J0.25 F500.
G1 X144. Y174.5
G0 Z5.
X205.
Z1.
G1 Z0. F500.
X205.25 Y174.25
G3 X205.5 Y174.5 I0. J0.25
X204.5 Z-0.728 I-0.5 J0. F800.
X205.5 Z-1.456 I0.5 J0.
X204.5 Z-2.184 I-0.5 J0.
X205.5 Z-2.912 I0.5 J0.
X204.5 Z-3.64 I-0.5 J0.
X204.992 Y174. Z-4. I0.5 J0.
X205.008 Y175. I0.008 J0.5
X204.992 Y174. I-0.008 J-0.5
X205.246 Y174.246 I0.004 J0.25 F500.
G1 X205. Y174.5
G0 Z5.
X252.2 Y146.2
Z2.
G1 Z1. F500.
G18 G2 X253.2 Z0. I1. K0.
G1 X254.2
G17 G3 X254.5 Y146.5 I0. J0.3
X251.5 Z-1.092 I-1.5 J0. F800.
X254.5 Z-2.184 I1.5 J0.
X251.5 Z-3.276 I-1.5 J0.
X253.736 Y145.193 Z-4. I1.5 J0.
X252.264 Y147.807 I-0.736 J1.307
X253.736 Y145.193 I0.736 J-1.307
X253.85 Y145.602 I-0.147 J0.261 F500.
G1 X253.36 Y146.473
X253.3 Y146.578 Z-3.993
X253.242 Y146.681 Z-3.971
X253.185 Y146.782 Z-3.935
X253.131 Y146.878 Z-3.885
X253.081 Y146.968 Z-3.823
X253.034 Y147.051 Z-3.749
X252.992 Y147.125 Z-3.663
X252.956 Y147.19 Z-3.568
X252.925 Y147.244 Z-3.465
X252.901 Y147.288 Z-3.355
X252.883 Y147.319 Z-3.239
X252.872 Y147.338 Z-3.121
X252.869 Y147.344 Z-3.
G0 Z5.
X252.2 Y111.2
Z2.
G1 Z1. F500.
G18 G2 X253.2 Z0. I1. K0.
G1 X254.2
G17 G3 X254.5 Y111.5 I0. J0.3
X251.5 Z-1.092 I-1.5 J0. F800.
X254.5 Z-2.184 I1.5 J0.
X251.5 Z-3.276 I-1.5 J0.
X253.736 Y110.193 Z-4. I1.5 J0.
X252.264 Y112.807 I-0.736 J1.307
X253.736 Y110.193 I0.736 J-1.307
X253.85 Y110.602 I-0.147 J0.261 F500.
G1 X253.36 Y111.473
X253.3 Y111.578 Z-3.993
X253.242 Y111.681 Z-3.971
X253.185 Y111.782 Z-3.935
X253.131 Y111.878 Z-3.885
X253.081 Y111.968 Z-3.823
X253.034 Y112.051 Z-3.749
X252.992 Y112.125 Z-3.663
X252.956 Y112.19 Z-3.568
X252.925 Y112.244 Z-3.465
X252.901 Y112.288 Z-3.355
X252.883 Y112.319 Z-3.239
X252.872 Y112.338 Z-3.121
X252.869 Y112.344 Z-3.
G0 Z5.
X253.8 Y68.8
Z2.
G1 Z1. F500.
G18 G3 X252.8 Z0. I-1. K0.
G1 X251.8
G17 G3 X251.5 Y68.5 I0. J-0.3
X254.5 Z-1.092 I1.5 J0. F800.
X251.5 Z-2.184 I-1.5 J0.
X254.5 Z-3.276 I1.5 J0.
X252.264 Y69.807 Z-4. I-1.5 J0.
X253.736 Y67.193 I0.736 J-1.307
X252.264 Y69.807 I-0.736 J1.307
X252.15 Y69.398 I0.147 J-0.261 F500.
G1 X252.64 Y68.527
X252.7 Y68.422 Z-3.993
X252.758 Y68.319 Z-3.971
X252.815 Y68.218 Z-3.935
X252.869 Y68.122 Z-3.885
X252.919 Y68.032 Z-3.823
X252.966 Y67.949 Z-3.749
X253.008 Y67.875 Z-3.663
X253.044 Y67.81 Z-3.568
X253.075 Y67.756 Z-3.465
X253.099 Y67.712 Z-3.355
X253.117 Y67.681 Z-3.239
X253.128 Y67.662 Z-3.121
X253.131 Y67.656 Z-3.
G0 Z5.
X252.2 Y33.2
Z2.
G1 Z1. F500.
G18 G2 X253.2 Z0. I1. K0.
G1 X254.2
G17 G3 X254.5 Y33.5 I0. J0.3
X251.5 Z-1.092 I-1.5 J0. F800.
X254.5 Z-2.184 I1.5 J0.
X251.5 Z-3.276 I-1.5 J0.
X253.736 Y32.193 Z-4. I1.5 J0.
X252.264 Y34.807 I-0.736 J1.307
X253.736 Y32.193 I0.736 J-1.307
X253.85 Y32.602 I-0.147 J0.261 F500.
G1 X253.36 Y33.473
X253.3 Y33.578 Z-3.993
X253.242 Y33.682 Z-3.971
X253.185 Y33.782 Z-3.935
X253.131 Y33.878 Z-3.885
X253.081 Y33.968 Z-3.823
X253.034 Y34.051 Z-3.749
X252.992 Y34.125 Z-3.663
X252.956 Y34.19 Z-3.568
X252.925 Y34.244 Z-3.465
X252.901 Y34.288 Z-3.355
X252.883 Y34.319 Z-3.239
X252.872 Y34.338 Z-3.121
X252.869 Y34.344 Z-3.
G0 Z5.
X265.2 Y19.2
Z2.
G1 Z1. F500.
G18 G2 X266.2 Z0. I1. K0.
G1 X267.2
G17 G3 X267.5 Y19.5 I0. J0.3
X262.5 Z-1.456 I-2.5 J0. F800.
X267.5 Z-2.912 I2.5 J0.
X263.246 Y21.282 Z-4. I-2.5 J0.
X266.754 Y17.718 I1.754 J-1.782
X263.246 Y21.282 I-1.754 J1.782
X263.243 Y20.857 I0.21 J-0.214 F500.
G1 X263.944 Y20.145
X264.029 Y20.059 Z-3.993
X264.112 Y19.974 Z-3.971
X264.193 Y19.892 Z-3.935
X264.27 Y19.814 Z-3.885
X264.343 Y19.74 Z-3.823
X264.41 Y19.672 Z-3.749
X264.469 Y19.611 Z-3.663
X264.522 Y19.558 Z-3.568
X264.566 Y19.514 Z-3.465
X264.6 Y19.478 Z-3.355
X264.626 Y19.453 Z-3.239
X264.641 Y19.437 Z-3.121
X264.646 Y19.432 Z-3.
G0 Z15.

(2D CONTOUR1 10)
G0 X213. Y212.5
Z15.
Z5.
G1 Z0.6 F600.
Z-4.
G3 X136. I-38.5 J0.
X213. I38.5 J0.
G0 Z5.
X181.5 Y125.
G1 Z0.6 F600.
Z-4.
Y131.
X128.5
Y126.049
X147.806 Y119.
X181.5
Y125.
G0 Z5.
X178. Y54.
G1 Z0.6 F600.
Z-4.
X213.
G3 Y91. I0. J18.5
G1 X178.
G3 Y54. I0. J-18.5
G0 Z5.
X143.5 Y100.5
G1 Z0.6 F600.
Z-4.
G3 X120.5 I-11.5 J0.
G1 Y82.5
G3 X143.5 I11.5 J0.
G1 Y100.5
G0 Z5.
X95.5 Y84.
G1 Z0.6 F600.
Z-4.
Y118.5
X90.5
Y81.5
X95.5
Y84.
G0 Z5.
X76.5 Y173.5
G1 Z0.6 F600.
Z-4.
Y273.5
G3 X49.5 I-13.5 J0.
G1 Y173.5
G3 X76.5 I13.5 J0.
G0 Z5.
X94.5 Y311.505
G1 Z0.6 F600.
Z-4.
Y313.01
X42.5
Y310.
X94.5
Y311.505
G0 Z15.

(2D CONTOUR1 11)
G0 X140. Y322.
Z15.
Z5.
G1 Z0.6 F600.
Z-4.
X243.552
G3 X256.191 Y327.893 I0. J16.5
G2 X273.132 Y328.632 I8.809 J-7.393
X272.393 Y311.691 I-8.132 J-8.132
G3 X266.5 Y299.052 I10.607 J-12.639
G1 Y182.113
Z0.
Y177.113
Z-4.
Y40.948
G3 X272.393 Y28.309 I16.5 J0.
G2 X273.132 Y11.368 I-7.393 J-8.809
X256.191 Y12.107 I-8.132 J8.132
G3 X243.552 Y18. I-12.639 J-10.607
G1 X140.449
Z0.
X135.449
Z-4.
X109.089
G3 X96.45 Y12.107 I0. J-16.5
G2 X87.641 Y8. I-8.809 J7.393
G1 X15.
G2 X7.607 Y28.309 I0. J11.5
G3 X13.5 Y40.948 I-10.607 J12.639
G1 Y173.683
Z0.
Y178.683
Z-4.
Y299.052
G3 X7.607 Y311.691 I-16.5 J0.
G2 X6.868 Y328.632 I7.393 J8.809
X23.809 Y327.893 I8.132 J-8.132
G3 X36.448 Y322. I12.639 J10.607
G1 X132.999
Z0.
X137.999
Z-4.
X140.
G0 Z15.

M9
M5
M30
