(1001)
(T32 D=3. CR=0. - ZMIN=-4. - FLAT END MILL)
G90 G94 G91.1 G40 G49 G17
G21
(-ATTENTION- PROPERTY SAFE RETRACTS IS SET TO CLEARANCE HEIGHT.)
(ENSURE THE CLEARANCE HEIGHT WILL CLEAR THE PART AND OR FIXTURES.)
(RAISE THE Z-AXIS TO A SAFE HEIGHT BEFORE STARTING THE PROGRAM.)

(BORE1)

S7000 M3
G17 G90 G94
G54
M8
G0 X125.2 Y19.2

G0 Z1.
G1 Z0. F500.
X126.2
G3 X126.5 Y19.5 I0. J0.3
X124.5 Z-0.91 I-1. J0.
X126.5 Z-1.82 I1. J0.
X124.5 Z-2.73 I-1. J0.
X126.5 Z-3.64 I1. J0.
X125.821 Y20.447 Z-4. I-1. J0.
X125.179 Y18.553 I-0.321 J-0.947
X125.821 Y20.447 I0.321 J0.947
X125.441 Y20.259 I-0.096 J-0.284
G1 X125.12 Y19.312
G0 Z5.
X159.2 Y57.7
Z2.
G1 Z1. F500.
G18 G2 X160.2 Z0. I1. K0.
G1 X161.2
G17 G3 X161.5 Y58. I0. J0.3
X158.5 Z-1.092 I-1.5 J0.
X161.5 Z-2.184 I1.5 J0.
X158.5 Z-3.276 I-1.5 J0.
X160.736 Y56.693 Z-4. I1.5 J0.
X159.264 Y59.307 I-0.736 J1.307
X160.736 Y56.693 I0.736 J-1.307
X160.85 Y57.102 I-0.147 J0.261
G1 X160.36 Y57.973
X160.3 Y58.078 Z-3.993
X160.242 Y58.182 Z-3.971
X160.185 Y58.282 Z-3.935
X160.131 Y58.378 Z-3.885
X160.081 Y58.468 Z-3.823
X160.034 Y58.551 Z-3.749
X159.992 Y58.625 Z-3.663
X159.956 Y58.69 Z-3.568
X159.925 Y58.744 Z-3.465
X159.901 Y58.788 Z-3.355
X159.883 Y58.819 Z-3.239
X159.872 Y58.838 Z-3.121
X159.869 Y58.844 Z-3.
G0 Z5.
X159.7 Y75.2
Z1.
G1 Z0. F500.
X160.7
G3 X161. Y75.5 I0. J0.3
X159. Z-0.91 I-1. J0.
X161. Z-1.82 I1. J0.
X159. Z-2.73 I-1. J0.
X161. Z-3.64 I1. J0.
X160.321 Y76.447 Z-4. I-1. J0.
X159.679 Y74.553 I-0.321 J-0.947
X160.321 Y76.447 I0.321 J0.947
X159.941 Y76.259 I-0.096 J-0.284
G1 X159.62 Y75.312
G0 Z5.
X159.2 Y92.7
Z2.
G1 Z1. F500.
G18 G2 X160.2 Z0. I1. K0.
G1 X161.2
G17 G3 X161.5 Y93. I0. J0.3
X158.5 Z-1.092 I-1.5 J0.
X161.5 Z-2.184 I1.5 J0.
X158.5 Z-3.276 I-1.5 J0.
X160.736 Y91.693 Z-4. I1.5 J0.
X159.264 Y94.307 I-0.736 J1.307
X160.736 Y91.693 I0.736 J-1.307
X160.85 Y92.102 I-0.147 J0.261
G1 X160.36 Y92.973
X160.3 Y93.078 Z-3.993
X160.242 Y93.181 Z-3.971
X160.185 Y93.282 Z-3.935
X160.131 Y93.378 Z-3.885
X160.081 Y93.468 Z-3.823
X160.034 Y93.551 Z-3.749
X159.992 Y93.625 Z-3.663
X159.956 Y93.69 Z-3.568
X159.925 Y93.744 Z-3.465
X159.901 Y93.788 Z-3.355
X159.883 Y93.819 Z-3.239
X159.872 Y93.838 Z-3.121
X159.869 Y93.844 Z-3.
G0 Z5.
X125.2 Y90.2
Z1.
G1 Z0. F500.
X126.2
G3 X126.5 Y90.5 I0. J0.3
X124.5 Z-0.91 I-1. J0.
X126.5 Z-1.82 I1. J0.
X124.5 Z-2.73 I-1. J0.
X126.5 Z-3.64 I1. J0.
X125.821 Y91.447 Z-4. I-1. J0.
X125.179 Y89.553 I-0.321 J-0.947
X125.821 Y91.447 I0.321 J0.947
X125.441 Y91.259 I-0.096 J-0.284
G1 X125.12 Y90.312
G0 Z5.
X54.2 Y90.2
Z1.
G1 Z0. F500.
X55.2
G3 X55.5 Y90.5 I0. J0.3
X53.5 Z-0.91 I-1. J0.
X55.5 Z-1.82 I1. J0.
X53.5 Z-2.73 I-1. J0.
X55.5 Z-3.64 I1. J0.
X54.821 Y91.447 Z-4. I-1. J0.
X54.179 Y89.553 I-0.321 J-0.947
X54.821 Y91.447 I0.321 J0.947
X54.441 Y91.259 I-0.096 J-0.284
G1 X54.12 Y90.312
G0 Z5.
X19.2 Y92.7
Z2.
G1 Z1. F500.
G18 G2 X20.2 Z0. I1. K0.
G1 X21.2
G17 G3 X21.5 Y93. I0. J0.3
X18.5 Z-1.092 I-1.5 J0.
X21.5 Z-2.184 I1.5 J0.
X18.5 Z-3.276 I-1.5 J0.
X20.736 Y91.693 Z-4. I1.5 J0.
X19.264 Y94.307 I-0.736 J1.307
X20.736 Y91.693 I0.736 J-1.307
X20.85 Y92.102 I-0.147 J0.261
G1 X20.36 Y92.973
X20.3 Y93.078 Z-3.993
X20.242 Y93.181 Z-3.971
X20.185 Y93.282 Z-3.935
X20.131 Y93.378 Z-3.885
X20.081 Y93.468 Z-3.823
X20.034 Y93.551 Z-3.749
X19.992 Y93.625 Z-3.663
X19.956 Y93.69 Z-3.568
X19.925 Y93.744 Z-3.465
X19.901 Y93.788 Z-3.355
X19.883 Y93.819 Z-3.239
X19.872 Y93.838 Z-3.121
X19.869 Y93.844 Z-3.
G0 Z5.
X19.7 Y75.2
Z1.
G1 Z0. F500.
X20.7
G3 X21. Y75.5 I0. J0.3
X19. Z-0.91 I-1. J0.
X21. Z-1.82 I1. J0.
X19. Z-2.73 I-1. J0.
X21. Z-3.64 I1. J0.
X20.321 Y76.447 Z-4. I-1. J0.
X19.679 Y74.553 I-0.321 J-0.947
X20.321 Y76.447 I0.321 J0.947
X19.941 Y76.259 I-0.096 J-0.284
G1 X19.62 Y75.312
G0 Z5.
X19.2 Y57.7
Z2.
G1 Z1. F500.
G18 G2 X20.2 Z0. I1. K0.
G1 X21.2
G17 G3 X21.5 Y58. I0. J0.3
X18.5 Z-1.092 I-1.5 J0.
X21.5 Z-2.184 I1.5 J0.
X18.5 Z-3.276 I-1.5 J0.
X20.736 Y56.693 Z-4. I1.5 J0.
X19.264 Y59.307 I-0.736 J1.307
X20.736 Y56.693 I0.736 J-1.307
X20.85 Y57.102 I-0.147 J0.261
G1 X20.36 Y57.973
X20.3 Y58.078 Z-3.993
X20.242 Y58.182 Z-3.971
X20.185 Y58.282 Z-3.935
X20.131 Y58.378 Z-3.885
X20.081 Y58.468 Z-3.823
X20.034 Y58.551 Z-3.749
X19.992 Y58.625 Z-3.663
X19.956 Y58.69 Z-3.568
X19.925 Y58.744 Z-3.465
X19.901 Y58.788 Z-3.355
X19.883 Y58.819 Z-3.239
X19.872 Y58.838 Z-3.121
X19.869 Y58.844 Z-3.
G0 Z5.
X54.2 Y19.2
Z1.
G1 Z0. F500.
X55.2
G3 X55.5 Y19.5 I0. J0.3
X53.5 Z-0.91 I-1. J0.
X55.5 Z-1.82 I1. J0.
X53.5 Z-2.73 I-1. J0.
X55.5 Z-3.64 I1. J0.
X54.821 Y20.447 Z-4. I-1. J0.
X54.179 Y18.553 I-0.321 J-0.947
X54.821 Y20.447 I0.321 J0.947
X54.441 Y20.259 I-0.096 J-0.284
G1 X54.12 Y19.312
G0 Z15.

(2D CONTOUR1 4)
G0 X128.5 Y55.
Z15.
Z5.
G1 Z0.6 F500.
Z-4.
Y76.879
X111.879 Y93.5
X68.121
X51.5 Y76.879
Y33.121
X68.121 Y16.5
X111.879
X128.5 Y33.121
Y55.
G0 Z15.

(2D CONTOUR1 5)
G0 X18. Y106.5
Z15.
Z5.
G1 Z0.6 F500.
Z-4.
X162.
G2 X173.5 Y95. I0. J-11.5
G1 Y59.543
Z0.
Y54.543
Z-4.
Y15.
G2 X162. Y3.5 I-11.5 J0.
G1 X18.
G2 X6.5 Y15. I0. J11.5
G1 Y56.083
Z0.
Y61.083
Z-4.
Y95.
G2 X18. Y106.5 I11.5 J0.
G0 Z15.

M9
M5
M30
