(1001)
(T32 D=3. CR=0. - ZMIN=-4. - FLAT END MILL)
G90 G94 G91.1 G40 G49 G17
G21
(-ATTENTION- PROPERTY SAFE RETRACTS IS SET TO CLEARANCE HEIGHT.)
(ENSURE THE CLEARANCE HEIGHT WILL CLEAR THE PART AND OR FIXTURES.)
(RAISE THE Z-AXIS TO A SAFE HEIGHT BEFORE STARTING THE PROGRAM.)

(BORE1)

S7000 M3
G17 G90 G94
G54
M8
G0 X46.502 Y40.3

G0 Z2.
G1 Z1. F500.
G18 G3 X45.502 Z0. I-1. K0.
G1 X44.502
G17 G3 X44.202 Y40. I0. J-0.3
X47.202 Z-1.092 I1.5 J0. F800.
X44.202 Z-2.184 I-1.5 J0.
X47.202 Z-3.276 I1.5 J0.
X44.966 Y41.307 Z-4. I-1.5 J0.
X46.438 Y38.693 I0.736 J-1.307
X44.966 Y41.307 I-0.736 J1.307
X44.852 Y40.898 I0.147 J-0.261 F500.
G1 X45.343 Y40.027
X45.402 Y39.922 Z-3.993
X45.46 Y39.818 Z-3.971
X45.517 Y39.718 Z-3.935
X45.571 Y39.622 Z-3.885
X45.621 Y39.532 Z-3.823
X45.668 Y39.449 Z-3.749
X45.71 Y39.375 Z-3.663
X45.747 Y39.31 Z-3.568
X45.777 Y39.256 Z-3.465
X45.802 Y39.212 Z-3.355
X45.819 Y39.181 Z-3.239
X45.83 Y39.162 Z-3.121
X45.833 Y39.156 Z-3.
G0 Z5.
X20.502 Y40.3
Z2.
G1 Z1. F500.
G18 G3 X19.502 Z0. I-1. K0.
G1 X18.502
G17 G3 X18.202 Y40. I0. J-0.3
X21.202 Z-1.092 I1.5 J0. F800.
X18.202 Z-2.184 I-1.5 J0.
X21.202 Z-3.276 I1.5 J0.
X18.966 Y41.307 Z-4. I-1.5 J0.
X20.438 Y38.693 I0.736 J-1.307
X18.966 Y41.307 I-0.736 J1.307
X18.852 Y40.898 I0.147 J-0.261 F500.
G1 X19.343 Y40.027
X19.402 Y39.922 Z-3.993
X19.46 Y39.818 Z-3.971
X19.517 Y39.718 Z-3.935
X19.571 Y39.622 Z-3.885
X19.621 Y39.532 Z-3.823
X19.668 Y39.449 Z-3.749
X19.71 Y39.375 Z-3.663
X19.747 Y39.31 Z-3.568
X19.777 Y39.256 Z-3.465
X19.802 Y39.212 Z-3.355
X19.819 Y39.181 Z-3.239
X19.83 Y39.162 Z-3.121
X19.833 Y39.156 Z-3.
G0 Z5.
X17.264 Y101.868
Z1.
G1 Z0. F500.
X17.014 Y101.618
G3 X17.264 Y101.368 I0.25 J0.
Y102.368 Z-0.728 I0. J0.5 F800.
Y101.368 Z-1.456 I0. J-0.5
Y102.368 Z-2.184 I0. J0.5
Y101.368 Z-2.912 I0. J-0.5
Y102.368 Z-3.64 I0. J0.5
X16.764 Y101.876 Z-4. I0. J-0.5
X17.764 Y101.86 I0.5 J-0.008
X16.764 Y101.876 I-0.5 J0.008
X17.01 Y101.622 I0.25 J-0.004 F500.
G1 X17.264 Y101.868
G0 Z5.
X43.264
Z1.
G1 Z0. F500.
X43.014 Y101.618
G3 X43.264 Y101.368 I0.25 J0.
Y102.368 Z-0.728 I0. J0.5 F800.
Y101.368 Z-1.456 I0. J-0.5
Y102.368 Z-2.184 I0. J0.5
Y101.368 Z-2.912 I0. J-0.5
Y102.368 Z-3.64 I0. J0.5
X42.764 Y101.876 Z-4. I0. J-0.5
X43.764 Y101.86 I0.5 J-0.008
X42.764 Y101.876 I-0.5 J0.008
X43.01 Y101.622 I0.25 J-0.004 F500.
G1 X43.264 Y101.868
G0 Z5.
Y153.868
Z1.
G1 Z0. F500.
X43.014 Y153.618
G3 X43.264 Y153.368 I0.25 J0.
Y154.368 Z-0.728 I0. J0.5 F800.
Y153.368 Z-1.456 I0. J-0.5
Y154.368 Z-2.184 I0. J0.5
Y153.368 Z-2.912 I0. J-0.5
Y154.368 Z-3.64 I0. J0.5
X42.764 Y153.876 Z-4. I0. J-0.5
X43.764 Y153.86 I0.5 J-0.008
X42.764 Y153.876 I-0.5 J0.008
X43.01 Y153.622 I0.25 J-0.004 F500.
G1 X43.264 Y153.868
G0 Z5.
X17.264
Z1.
G1 Z0. F500.
X17.014 Y153.618
G3 X17.264 Y153.368 I0.25 J0.
Y154.368 Z-0.728 I0. J0.5 F800.
Y153.368 Z-1.456 I0. J-0.5
Y154.368 Z-2.184 I0. J0.5
Y153.368 Z-2.912 I0. J-0.5
Y154.368 Z-3.64 I0. J0.5
X16.764 Y153.876 Z-4. I0. J-0.5
X17.764 Y153.86 I0.5 J-0.008
X16.764 Y153.876 I-0.5 J0.008
X17.01 Y153.622 I0.25 J-0.004 F500.
G1 X17.264 Y153.868
G0 Z5.
X20.502 Y172.3
Z2.
G1 Z1. F500.
G18 G3 X19.502 Z0. I-1. K0.
G1 X18.502
G17 G3 X18.202 Y172. I0. J-0.3
X21.202 Z-1.092 I1.5 J0. F800.
X18.202 Z-2.184 I-1.5 J0.
X21.202 Z-3.276 I1.5 J0.
X18.966 Y173.307 Z-4. I-1.5 J0.
X20.438 Y170.693 I0.736 J-1.307
X18.966 Y173.307 I-0.736 J1.307
X18.852 Y172.898 I0.147 J-0.261 F500.
G1 X19.343 Y172.027
X19.402 Y171.922 Z-3.993
X19.46 Y171.819 Z-3.971
X19.517 Y171.718 Z-3.935
X19.571 Y171.622 Z-3.885
X19.621 Y171.532 Z-3.823
X19.668 Y171.449 Z-3.749
X19.71 Y171.375 Z-3.663
X19.747 Y171.31 Z-3.568
X19.777 Y171.256 Z-3.465
X19.802 Y171.212 Z-3.355
X19.819 Y171.181 Z-3.239
X19.83 Y171.162 Z-3.121
X19.833 Y171.156 Z-3.
G0 Z5.
X125.603 Y175.286
Z1.
G1 Z0. F500.
X125.853 Y175.036
G3 X126.103 Y175.286 I0. J0.25
X125.103 Z-0.728 I-0.5 J0. F800.
X126.103 Z-1.456 I0.5 J0.
X125.103 Z-2.184 I-0.5 J0.
X126.103 Z-2.912 I0.5 J0.
X125.103 Z-3.64 I-0.5 J0.
X125.595 Y174.786 Z-4. I0.5 J0.
X125.611 Y175.786 I0.008 J0.5
X125.595 Y174.786 I-0.008 J-0.5
X125.849 Y175.032 I0.004 J0.25 F500.
G1 X125.603 Y175.286
G0 Z5.
X151.603
Z1.
G1 Z0. F500.
X151.853 Y175.036
G3 X152.103 Y175.286 I0. J0.25
X151.103 Z-0.728 I-0.5 J0. F800.
X152.103 Z-1.456 I0.5 J0.
X151.103 Z-2.184 I-0.5 J0.
X152.103 Z-2.912 I0.5 J0.
X151.103 Z-3.64 I-0.5 J0.
X151.595 Y174.786 Z-4. I0.5 J0.
X151.611 Y175.786 I0.008 J0.5
X151.595 Y174.786 I-0.008 J-0.5
X151.849 Y175.032 I0.004 J0.25 F500.
G1 X151.603 Y175.286
G0 Z5.
X172.011 Y153.448
Z1.
G1 Z0. F500.
X172.261 Y153.198
G3 X172.511 Y153.448 I0. J0.25
X171.511 Z-0.728 I-0.5 J0. F800.
X172.511 Z-1.456 I0.5 J0.
X171.511 Z-2.184 I-0.5 J0.
X172.511 Z-2.912 I0.5 J0.
X171.511 Z-3.64 I-0.5 J0.
X172.003 Y152.948 Z-4. I0.5 J0.
X172.019 Y153.948 I0.008 J0.5
X172.003 Y152.948 I-0.008 J-0.5
X172.257 Y153.194 I0.004 J0.25 F500.
G1 X172.011 Y153.448
G0 Z5.
X125.603 Y123.286
Z1.
G1 Z0. F500.
X125.853 Y123.036
G3 X126.103 Y123.286 I0. J0.25
X125.103 Z-0.728 I-0.5 J0. F800.
X126.103 Z-1.456 I0.5 J0.
X125.103 Z-2.184 I-0.5 J0.
X126.103 Z-2.912 I0.5 J0.
X125.103 Z-3.64 I-0.5 J0.
X125.595 Y122.786 Z-4. I0.5 J0.
X125.611 Y123.786 I0.008 J0.5
X125.595 Y122.786 I-0.008 J-0.5
X125.849 Y123.032 I0.004 J0.25 F500.
G1 X125.603 Y123.286
G0 Z5.
X151.603
Z1.
G1 Z0. F500.
X151.853 Y123.036
G3 X152.103 Y123.286 I0. J0.25
X151.103 Z-0.728 I-0.5 J0. F800.
X152.103 Z-1.456 I0.5 J0.
X151.103 Z-2.184 I-0.5 J0.
X152.103 Z-2.912 I0.5 J0.
X151.103 Z-3.64 I-0.5 J0.
X151.595 Y122.786 Z-4. I0.5 J0.
X151.611 Y123.786 I0.008 J0.5
X151.595 Y122.786 I-0.008 J-0.5
X151.849 Y123.032 I0.004 J0.25 F500.
G1 X151.603 Y123.286
G0 Z5.
X172.011 Y127.448
Z1.
G1 Z0. F500.
X172.261 Y127.198
G3 X172.511 Y127.448 I0. J0.25
X171.511 Z-0.728 I-0.5 J0. F800.
X172.511 Z-1.456 I0.5 J0.
X171.511 Z-2.184 I-0.5 J0.
X172.511 Z-2.912 I0.5 J0.
X171.511 Z-3.64 I-0.5 J0.
X172.003 Y126.948 Z-4. I0.5 J0.
X172.019 Y127.948 I0.008 J0.5
X172.003 Y126.948 I-0.008 J-0.5
X172.257 Y127.194 I0.004 J0.25 F500.
G1 X172.011 Y127.448
G0 Z5.
Y115.397
Z1.
G1 Z0. F500.
X172.261 Y115.147
G3 X172.511 Y115.397 I0. J0.25
X171.511 Z-0.728 I-0.5 J0. F800.
X172.511 Z-1.456 I0.5 J0.
X171.511 Z-2.184 I-0.5 J0.
X172.511 Z-2.912 I0.5 J0.
X171.511 Z-3.64 I-0.5 J0.
X172.003 Y114.897 Z-4. I0.5 J0.
X172.019 Y115.897 I0.008 J0.5
X172.003 Y114.897 I-0.008 J-0.5
X172.257 Y115.143 I0.004 J0.25 F500.
G1 X172.011 Y115.397
G0 Z5.
Y89.397
Z1.
G1 Z0. F500.
X172.261 Y89.147
G3 X172.511 Y89.397 I0. J0.25
X171.511 Z-0.728 I-0.5 J0. F800.
X172.511 Z-1.456 I0.5 J0.
X171.511 Z-2.184 I-0.5 J0.
X172.511 Z-2.912 I0.5 J0.
X171.511 Z-3.64 I-0.5 J0.
X172.003 Y88.897 Z-4. I0.5 J0.
X172.019 Y89.897 I0.008 J0.5
X172.003 Y88.897 I-0.008 J-0.5
X172.257 Y89.143 I0.004 J0.25 F500.
G1 X172.011 Y89.397
G0 Z5.
X143.702 Y86.
Z1.
G1 Z0. F500.
X143.452 Y86.25
G3 X143.202 Y86. I0. J-0.25
X144.202 Z-0.728 I0.5 J0. F800.
X143.895 Y86.461 Z-1. I-0.5 J0.
X143.509 Y85.539 Z-1.728 I-0.193 J-0.461
X143.895 Y86.461 Z-2.456 I0.193 J0.461
X143.509 Y85.539 Z-3.184 I-0.193 J-0.461
X143.895 Y86.461 Z-3.912 I0.193 J0.461
X143.71 Y86.5 Z-4. I-0.193 J-0.461
X143.694 Y85.5 I-0.008 J-0.5
X143.71 Y86.5 I0.008 J0.5
X143.456 Y86.254 I-0.004 J-0.25 F500.
G1 X143.702 Y86.
G0 Z5.
X123.702 Y18.
Z1.
G1 Z0. F500.
X123.452 Y18.25
G3 X123.202 Y18. I0. J-0.25
X124.202 Z-0.728 I0.5 J0. F800.
X123.202 Z-1.456 I-0.5 J0.
X124.202 Z-2.184 I0.5 J0.
X123.202 Z-2.912 I-0.5 J0.
X124.202 Z-3.64 I0.5 J0.
X123.71 Y18.5 Z-4. I-0.5 J0.
X123.694 Y17.5 I-0.008 J-0.5
X123.71 Y18.5 I0.008 J0.5
X123.456 Y18.254 I-0.004 J-0.25 F500.
G1 X123.702 Y18.
G0 Z5.
X143.702 Y33.
Z1.
G1 Z0. F500.
X143.452 Y33.25
G3 X143.202 Y33. I0. J-0.25
X144.202 Z-0.728 I0.5 J0. F800.
X143.202 Z-1.456 I-0.5 J0.
X144.202 Z-2.184 I0.5 J0.
X143.202 Z-2.912 I-0.5 J0.
X144.202 Z-3.64 I0.5 J0.
X143.71 Y33.5 Z-4. I-0.5 J0.
X143.694 Y32.5 I-0.008 J-0.5
X143.71 Y33.5 I0.008 J0.5
X143.456 Y33.254 I-0.004 J-0.25 F500.
G1 X143.702 Y33.
G0 Z5.
X177.502 Y18.3
Z2.
G1 Z1. F500.
G18 G3 X176.502 Z0. I-1. K0.
G1 X175.502
G17 G3 X175.202 Y18. I0. J-0.3
X178.202 Z-1.092 I1.5 J0. F800.
X175.202 Z-2.184 I-1.5 J0.
X178.202 Z-3.276 I1.5 J0.
X175.966 Y19.307 Z-4. I-1.5 J0.
X177.438 Y16.693 I0.736 J-1.307
X175.966 Y19.307 I-0.736 J1.307
X175.852 Y18.898 I0.147 J-0.261 F500.
G1 X176.343 Y18.027
X176.402 Y17.922 Z-3.993
X176.46 Y17.818 Z-3.971
X176.517 Y17.718 Z-3.935
X176.571 Y17.622 Z-3.885
X176.621 Y17.532 Z-3.823
X176.668 Y17.449 Z-3.749
X176.71 Y17.375 Z-3.663
X176.747 Y17.31 Z-3.568
X176.777 Y17.256 Z-3.465
X176.802 Y17.212 Z-3.355
X176.819 Y17.181 Z-3.239
X176.83 Y17.162 Z-3.121
X176.833 Y17.156 Z-3.
G0 Z5.
X178.902 Y39.7
Z2.
G1 Z1. F500.
G18 G2 X179.902 Z0. I1. K0.
G1 X180.902
G17 G3 X181.202 Y40. I0. J0.3
X178.202 Z-1.092 I-1.5 J0. F800.
X181.202 Z-2.184 I1.5 J0.
X178.202 Z-3.276 I-1.5 J0.
X180.438 Y38.693 Z-4. I1.5 J0.
X178.966 Y41.307 I-0.736 J1.307
X180.438 Y38.693 I0.736 J-1.307
X180.553 Y39.102 I-0.147 J0.261 F500.
G1 X180.062 Y39.973
X180.003 Y40.078 Z-3.993
X179.944 Y40.182 Z-3.971
X179.888 Y40.282 Z-3.935
X179.834 Y40.378 Z-3.885
X179.783 Y40.468 Z-3.823
X179.736 Y40.551 Z-3.749
X179.694 Y40.625 Z-3.663
X179.658 Y40.69 Z-3.568
X179.627 Y40.744 Z-3.465
X179.603 Y40.788 Z-3.355
X179.585 Y40.819 Z-3.239
X179.574 Y40.838 Z-3.121
X179.571 Y40.844 Z-3.
G0 Z5.
X204.902 Y39.7
Z2.
G1 Z1. F500.
G18 G2 X205.902 Z0. I1. K0.
G1 X206.902
G17 G3 X207.202 Y40. I0. J0.3
X204.202 Z-1.092 I-1.5 J0. F800.
X207.202 Z-2.184 I1.5 J0.
X204.202 Z-3.276 I-1.5 J0.
X206.438 Y38.693 Z-4. I1.5 J0.
X204.966 Y41.307 I-0.736 J1.307
X206.438 Y38.693 I0.736 J-1.307
X206.553 Y39.102 I-0.147 J0.261 F500.
G1 X206.062 Y39.973
X206.003 Y40.078 Z-3.993
X205.944 Y40.182 Z-3.971
X205.888 Y40.282 Z-3.935
X205.834 Y40.378 Z-3.885
X205.783 Y40.468 Z-3.823
X205.736 Y40.551 Z-3.749
X205.694 Y40.625 Z-3.663
X205.658 Y40.69 Z-3.568
X205.627 Y40.744 Z-3.465
X205.603 Y40.788 Z-3.355
X205.585 Y40.819 Z-3.239
X205.574 Y40.838 Z-3.121
X205.571 Y40.844 Z-3.
G0 Z5.
X226.702 Y33.
Z1.
G1 Z0. F500.
X226.452 Y33.25
G3 X226.202 Y33. I0. J-0.25
X227.202 Z-0.728 I0.5 J0. F800.
X226.202 Z-1.456 I-0.5 J0.
X227.202 Z-2.184 I0.5 J0.
X226.202 Z-2.912 I-0.5 J0.
X227.202 Z-3.64 I0.5 J0.
X226.71 Y33.5 Z-4. I-0.5 J0.
X226.694 Y32.5 I-0.008 J-0.5
X226.71 Y33.5 I0.008 J0.5
X226.456 Y33.254 I-0.004 J-0.25 F500.
G1 X226.702 Y33.
G0 Z5.
X222.502 Y18.3
Z2.
G1 Z1. F500.
G18 G3 X221.502 Z0. I-1. K0.
G1 X220.502
G17 G3 X220.202 Y18. I0. J-0.3
X223.202 Z-1.092 I1.5 J0. F800.
X220.202 Z-2.184 I-1.5 J0.
X223.202 Z-3.276 I1.5 J0.
X220.966 Y19.307 Z-4. I-1.5 J0.
X222.438 Y16.693 I0.736 J-1.307
X220.966 Y19.307 I-0.736 J1.307
X220.852 Y18.898 I0.147 J-0.261 F500.
G1 X221.343 Y18.027
X221.402 Y17.922 Z-3.993
X221.46 Y17.818 Z-3.971
X221.517 Y17.718 Z-3.935
X221.571 Y17.622 Z-3.885
X221.621 Y17.532 Z-3.823
X221.668 Y17.449 Z-3.749
X221.71 Y17.375 Z-3.663
X221.747 Y17.31 Z-3.568
X221.777 Y17.256 Z-3.465
X221.802 Y17.212 Z-3.355
X221.819 Y17.181 Z-3.239
X221.83 Y17.162 Z-3.121
X221.833 Y17.156 Z-3.
G0 Z5.
X224.011 Y89.397
Z1.
G1 Z0. F500.
X224.261 Y89.147
G3 X224.511 Y89.397 I0. J0.25
X223.511 Z-0.728 I-0.5 J0. F800.
X224.511 Z-1.456 I0.5 J0.
X223.511 Z-2.184 I-0.5 J0.
X224.511 Z-2.912 I0.5 J0.
X223.511 Z-3.64 I-0.5 J0.
X224.003 Y88.897 Z-4. I0.5 J0.
X224.019 Y89.897 I0.008 J0.5
X224.003 Y88.897 I-0.008 J-0.5
X224.257 Y89.143 I0.004 J0.25 F500.
G1 X224.011 Y89.397
G0 Z5.
Y115.397
Z1.
G1 Z0. F500.
X224.261 Y115.147
G3 X224.511 Y115.397 I0. J0.25
X223.511 Z-0.728 I-0.5 J0. F800.
X224.511 Z-1.456 I0.5 J0.
X223.511 Z-2.184 I-0.5 J0.
X224.511 Z-2.912 I0.5 J0.
X223.511 Z-3.64 I-0.5 J0.
X224.003 Y114.897 Z-4. I0.5 J0.
X224.019 Y115.897 I0.008 J0.5
X224.003 Y114.897 I-0.008 J-0.5
X224.257 Y115.143 I0.004 J0.25 F500.
G1 X224.011 Y115.397
G0 Z5.
Y127.448
Z1.
G1 Z0. F500.
X224.261 Y127.198
G3 X224.511 Y127.448 I0. J0.25
X223.511 Z-0.728 I-0.5 J0. F800.
X224.511 Z-1.456 I0.5 J0.
X223.511 Z-2.184 I-0.5 J0.
X224.511 Z-2.912 I0.5 J0.
X223.511 Z-3.64 I-0.5 J0.
X224.003 Y126.948 Z-4. I0.5 J0.
X224.019 Y127.948 I0.008 J0.5
X224.003 Y126.948 I-0.008 J-0.5
X224.257 Y127.194 I0.004 J0.25 F500.
G1 X224.011 Y127.448
G0 Z5.
Y153.448
Z1.
G1 Z0. F500.
X224.261 Y153.198
G3 X224.511 Y153.448 I0. J0.25
X223.511 Z-0.728 I-0.5 J0. F800.
X224.511 Z-1.456 I0.5 J0.
X223.511 Z-2.184 I-0.5 J0.
X224.511 Z-2.912 I0.5 J0.
X223.511 Z-3.64 I-0.5 J0.
X224.003 Y152.948 Z-4. I0.5 J0.
X224.019 Y153.948 I0.008 J0.5
X224.003 Y152.948 I-0.008 J-0.5
X224.257 Y153.194 I0.004 J0.25 F500.
G1 X224.011 Y153.448
G0 Z5.
X243.502 Y172.3
Z2.
G1 Z1. F500.
G18 G3 X242.502 Z0. I-1. K0.
G1 X241.502
G17 G3 X241.202 Y172. I0. J-0.3
X244.202 Z-1.092 I1.5 J0. F800.
X241.202 Z-2.184 I-1.5 J0.
X244.202 Z-3.276 I1.5 J0.
X241.966 Y173.307 Z-4. I-1.5 J0.
X243.438 Y170.693 I0.736 J-1.307
X241.966 Y173.307 I-0.736 J1.307
X241.852 Y172.898 I0.147 J-0.261 F500.
G1 X242.343 Y172.027
X242.402 Y171.922 Z-3.993
X242.46 Y171.819 Z-3.971
X242.517 Y171.718 Z-3.935
X242.571 Y171.622 Z-3.885
X242.621 Y171.532 Z-3.823
X242.668 Y171.449 Z-3.749
X242.71 Y171.375 Z-3.663
X242.747 Y171.31 Z-3.568
X242.777 Y171.256 Z-3.465
X242.802 Y171.212 Z-3.355
X242.819 Y171.181 Z-3.239
X242.83 Y171.162 Z-3.121
X242.833 Y171.156 Z-3.
G0 Z15.

(2D CONTOUR1 10)
G0 X120.689 Y119.644
Z15.
Z5.
G1 Z0.6 F600.
Z-4.
G2 X120.009 Y122.653 I6.32 J3.009
G1 Y132.082
G3 X102.191 Y139.563 I-27.309 J-40.081
X99.202 Y137.111 I-0.489 J-2.452
G1 Y107.166
G2 X104.534 Y103.5 I-6.5 J-15.165
G1 X136.52
G3 X138.901 Y106.761 I0. J2.5
X135.044 Y115.653 I-46.2 J-14.758
G1 X127.009
G2 X120.689 Y119.644 I0. J7.
G0 Z5.
X150.603 Y158.286
G1 Z0.6 F600.
Z-4.
Y170.286
X126.603
Y128.286
X150.603
Y158.286
G0 Z5.
X189.011 Y128.397
G1 Z0.6 F600.
Z-4.
X219.011
Y152.397
X177.011
Y128.397
X189.011
G0 Z5.
X219.011 Y102.397
G1 Z0.6 F600.
Z-4.
Y114.397
X177.011
Y90.397
X219.011
Y102.397
G0 Z5.
X203.841 Y73.633
G1 Z0.6 F600.
Z-4.
G3 X199.249 Y77.893 I-4.592 J-0.345
G1 X184.902
G3 Y68.684 I0. J-4.605
G1 X199.249
G3 X203.841 Y73.633 I0. J4.605
G0 Z5.
X169.377 Y62.
G1 Z0.6 F600.
Z-4.
G3 X156.027 I-6.675 J0.
X169.377 I6.675 J0.
G0 Z5.
X118.549 Y50.961
G1 Z0.6 F600.
Z-4.
G3 X127.559 Y58.277 I-25.847 J41.039
X126.868 Y70.737 I-6.109 J5.91
G2 X123.085 Y80.5 I6.834 J8.263
G1 X104.534
G2 X80.87 I-11.832 J11.5
G1 X48.884
G3 X46.503 Y77.239 I0. J-2.5
X118.549 Y50.961 I46.199 J14.761
G0 Z5.
X86.202 Y118.24
G1 Z0.6 F600.
Z-4.
Y137.111
G3 X83.213 Y139.563 I-2.5 J0.
X49.806 Y114.632 I9.489 J-47.563
G1 Y105.
G3 X51.306 Y103.5 I1.5 J0.
G1 X80.87
G2 X86.202 Y107.166 I11.832 J-11.5
G1 Y118.24
G0 Z5.
X94.333 Y163.767
G1 Z0.6 F600.
Z-4.
G3 X89.741 Y168.027 I-4.592 J-0.345
G1 X75.395
G3 Y158.817 I0. J-4.605
G1 X89.741
G3 X94.333 Y163.767 I0. J4.605
G0 Z5.
X42.264 Y136.868
G1 Z0.6 F600.
Z-4.
Y148.868
X18.264
Y106.868
X42.264
Y136.868
G0 Z5.
X35.042 Y74.025
G1 Z0.6 F600.
Z-4.
G3 X25.845 Y73.68 I-4.592 J-0.345
G1 Y59.334
G3 X35.055 I4.605 J0.
G1 Y73.68
G3 X35.042 Y74.025 I-4.605 J0.
G0 Z15.

(2D CONTOUR1 11)
G0 X19.702 Y183.5
Z15.
Z5.
G1 Z0.6 F600.
Z-4.
X74.29
Z0.
X79.29
Z-4.
X156.037
G2 X162.037 Y179.5 I0. J-6.5
G1 X164.794 Y172.885
G3 X173.428 Y167.93 I8.634 J5.045
G1 X226.702
G3 X234.702 Y175.93 I0. J8.
G2 X234.918 Y176.706 I1.5 J0.
X251.798 Y172. I7.784 J-4.706
G1 Y126.375
G2 X249.834 Y117.399 I-21.5 J0.001
G1 X234.892 Y84.876
G3 X233.202 Y77.153 I16.81 J-7.725
G1 Y51.251
Z0.
Y46.251
Z-4.
Y18.
G2 X221.702 Y6.5 I-11.5 J0.
G1 X173.279
Z0.
X168.279
Z-4.
X133.059
G2 X120.057 Y12.842 I0. J16.5
G1 X107.128 Y29.39
G3 X92.55 Y36.5 I-14.578 J-11.39
G1 X66.702
G3 X53.202 Y23. I0. J-13.5
G2 X36.702 Y6.5 I-16.5 J0.
G1 X19.702
G2 X8.202 Y18. I0. J11.5
G1 Y99.233
Z0.
Y104.233
Z-4.
Y172.
G2 X19.702 Y183.5 I11.5 J0.
G0 Z15.

M9
M5
M30
